X: 38657
T: Stourbra
R: reel
M: 4/4
K: Dmajor
|:dB|A2 Ad cA Ac|dcde fgaf|gfeg fedf|edef edBd|
A2 Ad cA Ac|dcde fefg|afge fdec|dBAc d2:|
|:ef|gebe gebe|fdad fdad|gebe gebe|fe dc d2 ef|
gebe gebe|fdad fdad|aAgA fAeA|dB Ac d2:|

